X:1
T:Piano Sonata No. 30, Op. 109
T:Piano Sonata No. 30, Op. 109
T:Movement 2 - Metal Remix
T:Ludwig van Beethoven
T:Arr. by Dekkadeci
C:Ludwig van Beethoven
Z:Arr. by Dekkadeci
%%score ( 1 2 ) ( 3 4 ) ( 5 6 ) ( 7 8 )
L:1/8
Q:3/8=172
M:6/8
K:G
V:1 treble-8 nm="Lead Guitar" snm="L. Gtr."
V:2 treble-8 
V:3 treble-8 nm="Rhythm Guitar" snm="R. Gtr."
V:4 treble-8 
V:5 bass-8 nm="Bass Guitar	" snm="B. Gtr."
V:6 bass-8 
V:7 perc nm="Drumset" snm="Drs."
K:none
I:percmap A A 41 normal
I:percmap ^a a 49 x
I:percmap ^b b 52 x
I:percmap ^c c 37 x
I:percmap ^d d 59 x
I:percmap ^e e 46 x
I:percmap ^g g 42 x
I:percmap c c 38 normal
I:percmap d d 45 normal
I:percmap e e 47 normal
I:percmap f f 48 normal
V:8 perc 
K:none
I:percmap F F 35 normal
V:1
!ff!"^Prestissimo" g3- geb | b3- bge' |!8va(! e'2 f' g'2 f' | e'3 ^d'2 z!8va)! | c'3- c'ae' | %5
!8va(! e'3- e'bb' | b'c''a' g'f'b'!8va)! | e'2 z4 |!p! a3- agf | b3- bag | %10
!8va(!!<(! c'2 f'- f'2 e' | ^d'2 f'!<)!!>(! g'2 e'!8va)!!>)! |!p! a3- agf | b3- bag | %14
!<(!!8va(! c'2 f'- f'2 e' | ^d'2 f'!<)!!>(! e'!8va)!fg!>)! |!p!"_cresc." a3- agf | b3- bag | %18
!8va(! c'2 f'- f'2 e' | ^d'2 f'- f'g'e'!8va)! | a3- agf | b3- bag |!8va(! c'2 f'- f'2 e' | %23
 ^d'2 f'!mp! e'2!8va)! z | z6 | z6 | z6 | z6 |!8va(! g'2 f' ^d'2 e'!8va)! | b3 b2 b | %30
 b3 ^a2!<(! b | ^c'3!<)!!>(! d'3!>)! |!p!!8va(! ^c'3- c'd'e' | d'3- d'e'f' | %34
"_cresc." e'2 f' g'2 f' | e'2 d' ^c'2 d' | ^c'3- c'd'e' | d'3- d'e'f' | e'2 [ff'] [gg']2 [ff'] | %39
 [gg']2 [^a^a'] [bb']2 [aa'] | [bb']2 [^c'^c''] [d'd'']2 [c'c''] | %41
!mf! [d'd'']2 [^c'^c''] [d'd'']2 [d'd'']- |!p! [d'd'']2!8va)! d'- d'^c'b | b2 ^g a2 f'- | %44
 f'2 c' b2 a | a2 f g2 e'- | e'2 _b- bag | g2 e =f2!8va(! =f'- |!<(! f'6- | f'2 e' d'2!<)!!mp! g' | %50
!p! z2 z g'2 d' | !wedge!g'2 z g'2 z |!pp! z2 z g'2 d' | !wedge!g'2 z g'2 z!8va)! |!<(! z2 z g2 d | %55
 f2 z f2 z!<)! |!f! F^G^A B^cd | ef^g ^ab^c' |!8va(! d'e'f' ^g'a'^a' | %59
 b'^a'b' [^c'^c'']!8va)!d'e' | [ff']2 z [ff']2 z | [ff']2 z [ff']2 z | [ff']3!8va(! T^c''3 | %63
 b'3 a'2 g' | f'2 z [ff']2 z |!f! !>!b'2 z z!8va)! fd' |!8va(! d'bf' f'd'b' | %67
!>(! b'e'd'' ^c''d''b' | ^a'g'f' e'd'^c'!8va)!!>)! |!p! b6 | a6 | e'6 | d'6 | ^c'3 ^a3 | b6 | a6 | %76
 g6 | f3 ^d3 | e6 | A6 | g6 | =f3 d3 | e3 c'3- | c'3 b3 | z2 z c'3 | e'3 ^d'3 | e6 | =f6 | d'6 | %89
 c'6 | b3 ^g3 | [ca]6 | [Bg]6 | [Af]6 | [Be]3 [Bg]3 | !breath!!fermata![^Af]6 |!pp!!8va(! [be']6 | %97
 [^d'f']6 | [bg']3 [be']3 | [^af']6 | [be']3 [bg']3 | [^c'f']2 z4 | [d'f']2 z4 | %103
 [^c'f']2 z4!8va)! |!ff! g3- geb | b3- bge' |!8va(! e'2 f' g'2 f' | e'3 ^d'2 z!8va)! | c'3- c'ae' | %109
!8va(! e'3- e'bb' | b'c''a' g'f'b'!8va)! | [ee']3 e'3- | e'3!8va(! [d'd'']2 z | %113
 [c'c'']2 z [aa']2 z | [bb']6 | [aa']3 a'3- | a'3 g'2 z | f'2 z ^d'2 z | %118
!>(! e'2 z [bb']2 z!8va)!!>)! |!p! e'2 d' b2 c' | g3 g2 g | g3!<(! f2 g!<)! |!>(! a3!>)!!p! g3 | %123
 z6 | z6 | e2 d B2 ^c | ^A3 A2 A |!<(! c'2 b ^g2 a | a3 a2 a |!8va(! a'2 g' e'2 f'!<)! | %130
!mp! f'3 f'2 f' |!p! f'3- f'g'a' | g'3- g'a'b' |"_cresc." a'2 b' c''2 b' | a'2 g' f'2 g' | %135
 f'3 f'g'a' | g'3 g'a'b' | a'2 b' c''2 b' | a'2 g' f'2 g' | a'2 [bb'] [c'c'']2 [bb'] | %140
 [c'c'']2 ^d' e'2 d' | e'2 f' g'2 f' |!f! g'2 f' g'2 g'- |!p! g'2 g'- g'f'e' | e'2 ^c' d'2 =f'- | %145
 f'2 =f'- f'e'd' | d'2 b c'2 _e'- | e'2 _e'- e'd'c' | c'2 a _b2 _b'- |!<(! b'6- | %150
 b'2 a' g'2!<)!!mp! c'' |!p! z2 z c''2 g' | !wedge!c''2 z c''2 z!8va)! |!pp! z2 z c'2 g | %154
 !wedge!c'2 z c'2 z |!<(! z2 z c2 G | B2 z B2 z!<)! |!f! B^c^d efg | ab^c' ^d'e'f' | %159
!8va(! g'a'b' [^c'^c'']d'^d' | e'^d'e' f'g'a' |!ff! [bb']2 z [bb']2 z | [bb']2 z [bb']2 z | %163
 [gg']3 !trill(!Tf'3 | e'3!8va)! d'2 c' |!ff! b2 z [Bb]2 z | !>![ee']2 z4 |!p! f2 z f2 z | B2 z4 | %169
 z6 | b3 b3 |!8va(! e'3 e'3 |!<(! g'3 g'3 | c''3 c''3 | e'3 e'3!<)! |!f! e'2 z ^d'2 z | %176
 !>!e'2!8va)! z4 |] %177
V:2
 x6 | x6 |!8va(! x6 | x6!8va)! | x6 |!8va(! x6 | x6!8va)! | x6 | x6 | x6 |!8va(! x6 | x6!8va)! | %12
 x6 | x6 |!8va(! x6 | x4!8va)! x2 | x6 | x6 |!8va(! x6 | x6!8va)! | x6 | x6 |!8va(! x6 | %23
 x5!8va)! x | x6 | x6 | x6 | x6 |!8va(! x6!8va)! | x6 | x6 | x6 |!8va(! x6 | x6 | x6 | x6 | x6 | %37
 x6 | x6 | x6 | x6 | x6 | x2!8va)! x4 | x6 | x6 | x6 | x6 | x5!8va(! x | x6 | x6 | x6 | x6 | x6 | %53
 x6!8va)! | x6 | x6 | x6 | x6 |!8va(! x6 | x4!8va)! x2 | x6 | x6 | x3!8va(! x3 | x6 | x6 | %65
 !>!b3- b!8va)! z2 |!8va(! x6 | x6 | x6!8va)! | x6 | x6 | x6 | x6 | x6 | x6 | x6 | x6 | x6 | x6 | %79
 x6 | x6 | x6 | x6 | x6 | x6 | x6 | x6 | x6 | x6 | x6 | x6 | x6 | x6 | x6 | x6 | x6 |!8va(! x6 | %97
 x6 | x6 | x6 | x6 | x6 | x6 | x6!8va)! | x6 | x6 |!8va(! x6 | x6!8va)! | x6 |!8va(! x6 | %110
 x6!8va)! | x6 | x3!8va(! x3 | x6 | x6 | x6 | x6 | x6 | x6!8va)! | x6 | x6 | x6 | x6 | x6 | x6 | %125
 x6 | x6 | x6 | x6 |!8va(! x6 | x6 | x6 | x6 | x6 | x6 | x6 | x6 | x6 | x6 | x6 | x6 | x6 | x6 | %143
 x6 | x6 | x6 | x6 | x6 | x6 | x6 | x6 | x6 | x6!8va)! | x6 | x6 | x6 | x6 | x6 | x6 |!8va(! x6 | %160
 x6 | x6 | x6 | x6 | x3!8va)! x3 | x6 | x6 | x6 | x6 | x6 | x6 |!8va(! x6 | x6 | x6 | x6 | x6 | %176
 x2!8va)! x4 |] %177
V:3
!f! [EBe]6 | [DBd]6 | [CEc]3 [CEcc']3 | [B,FBf]6 | [A,EA]6 | [G,EG]6 | [EBee']3 [B,FB^d']3 | %7
 [EBe]2 z4 |!p! z FG A3 | z GA B3 | [Af]3 [^Ag]3 | [Bf]3 [Eg]3 | z FG A3 | z GA B3 | [Af]3 [^Ag]3 | %15
 [Bf]3 [Eg]3 |"_cresc." z [Ff][Ge] [A^d]2 z | z [Gg][Af] [Be]2 z | z f2- f g2- | g f2 g3 | %20
 z [Ff][Ge] [A^d]2 z | z [Gg][Af] [Be]2 z | z f2- f g2- | g f2!mp! g2 z |!p! G2 F ^D2 E | %25
 B,3 B,2 B, | B,3 A,2 B, | C3 B,3 | z6 | z2 [fa] [eg]2 [^df] | [eg]2 [df] [^ce]2 [Bd] | ^c3 b3- | %32
 bf^a f3- | ffb f3- |"_cresc." f3 ^a2 b | ^c' f2- f3 | ^c'^af- f3 | d'bf- f3- | f2 z Fed | %39
 Fef Fgf | Fg^a !>![Bfb]Ba |!mf! !>![Bfb]B^a !>![Bfb]2!8va(! f' |!p! ^e'2!8va)! ^G ^C^D^E | %43
 ^CAF =CF^D | B,^DF B,^CD | B,GE _B,E^C | A,^CE A,=B,C | A,=FD _A,DB, |!mp! G,A,B, CDB, | %49
 G,CE G,B,D |!p! =F,G,B, DB,G, |!8vb(! E,G,C ECG,!8vb)! | =F,G,B, DB,G, |!8vb(! E,G,C ECG,!8vb)! | %54
!<(! Bdc B^AB | dBF ^c^AF!<)! |!f! [^CF]2 z [CF]2 z | [^CF]2 z [CF]2 z | [DFd]3 [^CF^c]3 | %59
 [B,FB]3 [A,FA]2 [B,GB] | [F,^CF^c]^G,^A, B,CD | EF^G ^AB^c | def ^ga^a | b^ab ^c'd'e' | %64
 [ff']2 z [F^cf]2 z | !>![FBf]6 | [FAf]6 |!>(! [GBg]GG [Ee]EE | [Ff]FF F^cf!>)! |!p! b6 | a6 | %71
 g3 e3 | f6 | e6 | d6 | c3 A3 | B6 | A6 | G6 | =F3 D3 | e6 | _A6 | G3 e3 | _a3 =f3 | z2 z c'3- | %85
 c'3 b3 | B3 d3- | d3 c3 | z2 z =f3 | e3 c'3 | [d=f]3 [Bd]3 | c3 f3- | f3 e3- | e3 ^d3 | B3 B3 | %95
 !breath!!fermata!^A6 |!pp! [gb]6 | [fa]6 | [eb]3 [gb]3 | [f^a]6 | [gb]3 [eb]3 | [f^a]2 z4 | %102
 [fb]2 z4 | [f^a]2 z4 |!f! [EBe]6 | [DBd]6 | [CEc]3 [CEcc']3 | [B,FBf]6 | [A,EA]6 | [G,EG]6 | %110
 [EBee']3 [B,FB^d']3 | [EBe]6 | [DBd]6 | [CEc]3 [CEc]3 | [B,FB]6 | [A,EA]6 | [G,EG]6 | %117
 [EBe]3 [B,FB]3 |!>(! [EBe]3 [B,DB]3!>)! |!p! [CGc]2 z4 | z2 [d=f] [ce]2 [Bd] | %121
 [ce]2 [Bd] [Ac]2 [GBd] | [Fc_e]3 [GBd]3 | z6 | z6 | z6 | z6 |!<(! c'2 b ^g2 a | a3 a2 a | %129
 a6-!<)! |!mp! a6 |!p! z b^d' b3- | bbe' b3- |"_cresc." b3!8va(! ^d'2 e' | f' b2- b3 | f'^d'b- b3 | %136
 g'e'b- b3- | b3 ^d'2 e' | f' b2- b3- | b2 z Bag | Bab Bc'b | Bc'^d' !>![ebe']ed' | %142
!f! !>![ebe']e^d' !>![ebe']2!8va)! b |!p! ^a2 g- gfe | e2 ^c d2!8va(! =f'- | f'2!8va)! =f- fed | %146
 d2 B c2!8va(! _e'- | e'2!8va)! _e- edc | c2 A _B2!8va(! _b'!8va)! |!mp! CDE =FGE | C=FA CEG | %151
!p! _B,CE GEC | A,C=F AFC | _B,CE GEC | A,C=F AFC |!<(! EG=F E^DE | GFE ^DEF!<)! | %157
!f! [F,B,]2 z [F,B,]2 z | [F,B,]2 z [F,B,]2 z | [G,B,G]3 [F,B,F]3 | [E,B,E]3 [B,D]2 [E,CE] | %161
 [F,B,F] z z!8vb(! E,F,G,!8vb)! | A,B,^C ^DEF | GAB ^cd^d | e^de fga | [Bb]2 z [B,FB]2 z | %166
 !>![EBe]2 z4 |!p! [A^d]2 z [Ad]2 z | G2 z4 | z6 | b3 b3 | b3 a3 |!<(! [ge']3 [ge']3 | %173
!8va(! [e'g']3 [e'g']3 | [c'e']3 [be']3!<)! |!f! [ae']2 z [f^d']2 z | !>![ge']2!8va)! z4 |] %177
V:4
 x6 | x6 | x6 | x6 | x6 | x6 | x6 | x6 | x6 | x6 | x6 | x6 | x6 | x6 | x6 | x6 | x6 | x6 | A3 ^A3 | %19
 B3 E3 | x6 | x6 | A3 ^A3 | B3 E2 z | x6 | x6 | x6 | x6 | x6 | x6 | x6 | ^A2 G F2 ^E | F3 ^AB^c | %33
 B3- B^cd | x6 | x6 | F^A^c ABc | FBd B^cd | F^cd z z2 | x6 | x6 | x5!8va(! x | x2!8va)! x4 | x6 | %44
 x6 | x6 | x6 | x6 | x6 | x6 | x6 |!8vb(! x6!8vb)! | x6 |!8vb(! x6!8vb)! | x6 | x6 | x6 | x6 | x6 | %59
 x6 | x6 | x6 | x6 | x6 | x6 | x6 | x6 | x6 | x6 | x6 | x6 | x6 | x6 | x6 | x6 | x6 | x6 | x6 | %78
 x6 | x6 | x6 | x6 | x6 | x6 | x6 | x6 | x6 | x6 | x6 | x6 | x6 | x6 | x6 | x6 | x6 | x6 | x6 | %97
 x6 | x6 | x6 | x6 | x6 | x6 | x6 | x6 | x6 | x6 | x6 | x6 | x6 | x6 | x6 | x6 | x6 | x6 | x6 | %116
 x6 | x6 | x6 | x6 | x6 | x6 | x6 | x6 | x6 | x6 | x6 | x6 | x6 | x6 | x6 | z2 z ^def | e3- efg | %133
 Bfg!8va(! Bag | Bfe B^de | B^df def | Beg efg | Bfg Bag | Bfe B^de | Bfg z z2 | x6 | x6 | %142
 x5!8va)! x | x6 | x5!8va(! x | x2!8va)! x4 | x5!8va(! x | x2!8va)! x4 | x5!8va(! x!8va)! | x6 | %150
 x6 | x6 | x6 | x6 | x6 | x6 | x6 | x6 | x6 | x6 | x6 | x3!8vb(! x3!8vb)! | x6 | x6 | x6 | x6 | %166
 x6 | x6 | x6 | x6 | x6 | x6 | x6 |!8va(! x6 | x6 | x6 | x2!8va)! x4 |] %177
V:5
!ff! [E,E]6 | [D,D]6 | [C,C]3 [A,,A,]3 | [B,,B,]6 | [A,,A,]6 | [G,,G,]6 | [F,,F,]3 [B,,B,]3 | %7
 [E,E]2 z4 |!p! B,6 | B,6 | B,6- | B,6 | B,6 | B,6 | B,6- | B,6 |"_cresc." B,6 | B,6 | B,6- | B,6 | %20
 B,6 | B,6 | B,6- | B,3!mp! E,2 z |!p! G,2 F, ^D,2 E, | B,,3 B,,2 B,, | B,,3 A,,2 B,, | C,3 B,,3 | %28
 E,2 z4 | z6 | z6 |!8va(! ^A2 G F2 ^E!8va)! | F6 | F6 |!8va(!"_cresc." F^cd Fed | F^cB F^AB!8va)! | %36
 F6 | F6 |!8va(! F^cd Fed!8va)! |!mp! F z z F z z | F z z z2 z | z2 z z2 B, | %42
!p!!8va(! ^C^E^G C^DE | ^CAF =CF^D | B,^DF B,^CD | B,GE _B,E^C | A,^CE A,=B,C | %47
 A,=FD _A,DB,!8va)! | G,6 | G,3 =F,3 | =F,6 | E,6 |!pp! =F,6 | E,6 |!<(! [=F,,=F,]6 | %55
 [F,,F,]6!<)! |!f! [F,F]2 z [F,F]2 z | [F,F]2 z [F,F]2 z | [D,D]3 [^C,^C]3 | %59
 [B,,B,]3 [A,,A,]2 [G,,G,] | [F,,F,]^G,^A, B,^CD |!8va(! EF^G ^AB^c | d!8va)! z z4 | z6 | %64
 z2 z [F,F]2 z | !>![B,,B,]6 | [A,,A,]6 |!>(! [G,,G,]3 E,3 | F,3 ^G,2 ^A,!>)! | %69
!p! B,,B,B,, B,B,,B, | B,,B,B,, B,B,,B, | B,,B,B,, B,B,,B, | B,,B,B,, B,B,,B, | B,,B,B,, B,B,,B, | %74
 B,,B,B,, B,B,,B, | B,,B,B,, B,B,,B, | B,,B,B,, B,B,,B, | B,,B,B,, B,B,,B, | C,CC, CC,C | %79
 C,CC, CC,C | C,CC, CC,C | C,CC, CC,C |{/C,} C6 | D6 |!8va(! [EG]6 | [FA]6 | ^G6 | A6 | z2 z ^G3 | %89
 A3 E3!8va)! | D3 =F3 | ^D6 | E,6 | F,6 | G,3 E,3 | !breath!!fermata!F,6 | z6 | z6 | z6 | z6 | z6 | %101
 z6 | z6 | z6 |!ff! [E,E]6 | [D,D]6 | [C,C]3 [A,,A,]3 | [B,,B,]6 | [A,,A,]6 | [G,,G,]6 | %110
 [F,,F,]3 [B,,B,]3 | G,3- G,E,B, | B,3- B,G,E | E2 F G2 F | E3 ^D3 | C3- CA,E |!8va(! E3- EB,B | %117
 BcB AGF |!>(! GAG!8va)! =FED!>)! |!p! C2 z4 | z6 | z6 | z6 | [E,E]2 [D,D] [B,,B,]2 [C,C] | %124
 [G,,G,]3 [G,,G,]2 [G,,G,] | [G,,G,]6 | [F,,F,]6 |!<(!!8va(! [=FA]6 | [EAc]6 | [^DFB]6!<)! | %130
!mp! [CEA]6 |!p! [B,^DFB]2 z B3- | B6 |"_cresc." B z z B z2 | B z z B z2 | B6 | B6 | B z z B z2 | %138
 B z z B z2 | B z z B z2 | B z z B z2 | B z z e z2 |!mf! e z z e z E |!p! F^A^c F^GA | FdB =FB^G | %145
 EB^G EFG | EcA _EAF | DFA DEF | D_BG _DGE!8va)! | C6 | C3 _B,3 | _B,6 | A,6 |!pp! _B,6 | A,6 | %155
!<(! [_B,,_B,]6 | B,A,G, F,E,^D,!<)! |!f! [B,,B,]2 z [B,,B,]2 z | [B,,B,]2 z [B,,B,]2 z | %159
 [G,,G,]3 [F,,F,]3 | [E,,E,]3 D,2 C, |!ff! B,,^C,^D, E,F,G, | A,B,^C ^DEF |!8va(! GAB ^cd^d | %164
 e^de!8va)! z z2 |!ff!!8va(! [B,B]2 z [B,B]2 z | !>![Ee]2 z4!8va)! |!p! B,2 z B,2 z | E2 z4 | %169
 B,3 B,3 | B,3 B,3 | G,3 F,3 |!<(! E,3 D,3 | C,3 B,,3 | A,,3 G,,3!<)! |!f! [F,,F,]2 z [B,,B,]2 z | %176
 !>![E,E]2 z4 |] %177
V:6
 x6 | x6 | x6 | x6 | x6 | x6 | x6 | x6 | x6 | x6 | x6 | x6 | x6 | x6 | x6 | x6 | x6 | x6 | x6 | %19
 x6 | x6 | x6 | x6 | x6 | x6 | x6 | x6 | x6 | x6 | x6 | x6 |!8va(! x6!8va)! | x6 | x6 |!8va(! x6 | %35
 x6!8va)! | x6 | x6 |!8va(! x6!8va)! | x6 | x6 | x6 |!8va(! x6 | x6 | x6 | x6 | x6 | x6!8va)! | %48
 x6 | x6 | x6 | x6 | x6 | x6 | x6 | x6 | x6 | x6 | x6 | x6 | x6 |!8va(! x6 | x!8va)! x5 | x6 | x6 | %65
 x6 | x6 | x6 | x6 | x6 | x6 | x6 | x6 | x6 | x6 | x6 | x6 | x6 | x6 | x6 | x6 | x6 | x6 | x6 | %84
!8va(! x6 | x6 | z2 z B,3 | A,3 C3 | B,6 | C6!8va)! | x6 | x6 | x6 | x6 | x6 | x6 | x6 | x6 | x6 | %99
 x6 | x6 | x6 | x6 | x6 | x6 | x6 | x6 | x6 | x6 | x6 | x6 | x6 | x6 | z2 z C3 | B,6 | x6 | %116
!8va(! x6 | z2 z B,2 z | E2 z!8va)! G,2 z | x6 | x6 | x6 | x6 | x6 | x6 | x6 | x6 |!8va(! x6 | x6 | %129
 x6 | x6 | x6 | x6 | x6 | x6 | x6 | x6 | x6 | x6 | x6 | x6 | x6 | x6 | x6 | x6 | x6 | x6 | x6 | %148
 x6!8va)! | x6 | x6 | x6 | x6 | x6 | x6 | x6 | B,,6 | x6 | x6 | x6 | x6 | x6 | x6 |!8va(! x6 | %164
 x3!8va)! x3 |!8va(! x6 | x6!8va)! | x6 | x6 | x6 | x6 | x6 | x6 | x6 | x6 | x6 | x6 |] %177
V:7
[K:C]!f! [c^a] z z4 | [c^a] z z4 | [e^b]^c^c e^c^c | [c^b] z z4 | [c^b] z z4 | [c^b] z z4 | %6
 [c^b]^c^c c^c^c | [c^a] z z4 |!p! z6 | z6 | z6 | z6 | z6 | z6 | z6 | z6 |"_cresc." ^g z z ^g z2 | %17
 ^g z z ^g z2 | ^g z z ^g z2 | ^g z z ^g z2 | ^g z z ^g z2 | ^g z z ^g z2 | ^g z z ^g z2 | %23
 ^g z z!mp! [^c^g] z2 |!p! z6 | z6 | z6 | z6 | z6 | z2 z z z2 | z6 | ^g^g^g ^g^g^g | %32
 c^c^c [^g^b]^c^c | c^c^c [^g^b]^c^c |"_cresc." c^c^c [^g^b]^c^c | c^c^c [^g^b]^c^c | %36
 c^c^c [^g^b]^c^c | c^c^c [^g^b]^c^c | c^c^c [^g^b]^c^c | [^g^b]^c^c [^g^b]^c^c | %40
 [^g^b]^c^c!mf! [f^b]^c^c | [e^b]^c^c [d^b]^c^c |!p! [^c^g]^g^g [^c^g]^g^g | %43
 [^c^g]^g^g [^c^g]^g^g | [^c^g]^g^g [^c^g]^g^g | [^c^g]^g^g [^c^g]^g^g | [^c^g]^g^g [^c^g]^g^g | %47
 [^c^g]^g^g [^c^g]^g^g |!<(! [A^g]dd eff!<)! |!mp! f!>(!fe dAA!>)! |!p! ^c^g^g ^e^g^g | %51
 ^c^g^g ^e^g^g | ^c^g^g ^e^g^g | ^c^g^g ^e^g^g |!<(! d^c^c d^c^c | A^c^c A^c^c!<)! | %56
!f! [f^b]ff fff | eee ddd | [A^e]^c^c [^c^g]^c^c | [^c^g]^c^c [^c^g]^c^c | !//!^c3 !//!^c3 | %61
 !//!^c3 !//!^c3 | c z [^c^g] !//!^c3 | c z [^c^g] c z [^c^g] | [c^g] z z [c^g] z2 | %65
!f! !>![c^a] z z4 | [c^g] z z4 |!>(! [f^b]^c^c f^c^c | [e^g]^c^c ^c^c^c!>)! | %69
!p! [^c^g] z ^g ^g z ^g | [^c^g] z ^g ^g z ^g | [^c^g] z ^g ^g z ^g | [^c^g] z ^g ^g z ^g | %73
 [^c^g] z ^g ^g z ^g | [^c^g] z ^g ^g z ^g | [^c^g] z ^g ^g z ^g | [^c^g] z ^g ^g z ^g | %77
 [^c^g] z ^g ^g z ^g | [^c^g] z ^g ^g z ^g | [^c^g] z ^g ^g z ^g | [^c^g] z ^g ^g z ^g | %81
 [^c^g] z ^g ^g z ^g | [^c^g] z z ^d z2 | ^d z z ^d z2 | ^d z z ^d z2 | ^d z z ^d z2 | %86
 ^d z z ^d z2 | ^d z z ^d z2 | ^d z z ^d z2 | ^d z z ^d z2 | ^d z z ^d z2 | ^d z z ^d z2 | %92
 ^d z z ^d z2 | ^d z z ^d z2 | ^d z z ^d z2 | !breath!!fermata!^d6 |!p! ^d z z4 | ^d z z4 | %98
 ^d z z ^d z2 | ^d z z4 | ^d z z ^d z2 | ^d z z4 | ^d z z4 | ^d z z4 |!f! [c^a] z z4 | [c^a] z z4 | %106
 [e^b]^c^c e^c^c | [c^b] z z4 | [c^b] z z4 | [c^b] z z4 | [c^b]^c^c c^c^c | [c^a] z z4 | %112
 [c^a] z z4 | [e^b]^c^c e^c^c | [c^b] z z4 | [c^b] z z4 | [c^b] z z4 | [c^b]^c^c c^c^c | %118
!>(! [c^a]^c^c c^c^c!>)! |!p! ^b z z4 | z6 | z6 | z6 | z6 | z6 | z6 | z6 |!<(! z6 | z6 | z6!<)! | %130
!mp! z6 |!p! c^c^c [^g^b]^c^c | c^c^c [^g^b]^c^c |"_cresc." c^c^c [^g^b]^c^c | c^c^c [^g^b]^c^c | %135
 c^c^c [^g^b]^c^c | c^c^c [^g^b]^c^c | c^c^c [^g^b]^c^c | c^c^c [^g^b]^c^c | c^c^c [^g^b]^c^c | %140
 [^g^b]^c^c [^g^b]^c^c | [^g^b]^c^c!f! [f^b]^c^c | [e^b]^c^c [d^b]^c^c |!p! [^c^g]^g^g [^c^g]^g^g | %144
 [^c^g]^g^g [^c^g]^g^g | [^c^g]^g^g [^c^g]^g^g | [^c^g]^g^g [^c^g]^g^g | [^c^g]^g^g [^c^g]^g^g | %148
 [^c^g]^g^g [^c^g]^g^g |!<(! [A^g]dd eff!<)! |!mp! f!>(!fe dAA!>)! |!p! ^c^g^g ^e^g^g | %152
 ^c^g^g ^e^g^g | ^c^g^g ^e^g^g | ^c^g^g ^e^g^g |!<(! d^c^c d^c^c | A^c^c A^c^c!<)! | %157
!f! [f^b]ff fff | eee ddd | [A^e]^c^c [^c^g]^c^c | [^c^g]^c^c [^c^g]^c^c | !//!^c3 !//!^c3 | %162
 !//!^c3 !//!^c3 | c z [^c^g] !//!^c3 | c z [^c^g] c z [^c^g] | [c^g] z z [c^g] z2 | %166
!f! !>![c^a] z z4 |!p! [^g^b] z z [^g^b] z2 | [^g^b] z z4 | z6 | z6 | ^g z z ^g z2 | %172
!<(! ^g z z ^g z2 | [c^g] z z [c^g] z2 | [c^g] z z [c^g] z2!<)! |!f! [e^b] z z [d^b] z2 | %176
 !>![c^a] z z4 |] %177
V:8
[K:C] F z z4 | F z z4 | F z z F z2 | F z z4 | F z z4 | F z z4 | F z z F z2 | F z z4 | F z z F z2 | %9
 F z z F z2 | F z z F z2 | F z z F z2 | F z z F z2 | F z z F z2 | F z z F z2 | F z z F z2 | %16
 F z z F z2 | F z z F z2 | F z z F z2 | F z z F z2 | F z z F z2 | F z z F z2 | F z z F z2 | %23
 F z z F z2 | F z z4 | x6 | F z z4 | F z z F z2 | F z z4 | z2 z F z2 | F z z4 | F z z F z2 | %32
 F z z F z2 | F z z F z2 | F z z F z2 | F z z F z2 | F z z F z2 | F z z F z2 | F z z F z2 | %39
 F z2 F z2 | F z2 F z2 | F z2 F z2 | F z z4 | F z z4 | F z z4 | F z z4 | F z z4 | F z z4 | F z z4 | %49
 F z z F z2 | F z z F z2 | F z z F z2 | F z z F z2 | F z z F z2 | F z z F z2 | F z z F z2 | %56
 F z z F z2 | F z z F z2 | F z z F z2 | F z2 F z2 | F z z F z2 | F z z F z2 | F z z F z2 | %63
 F z z F z z | F z z F z2 | !>!F z z4 | F z z4 | F z z F z2 | F z z F z2 | F z z F z2 | %70
 F z z F z2 | F z z F z2 | F z z F z2 | F z z F z2 | F z z F z2 | F z z F z2 | F z z F z2 | %77
 F z z F z2 | F z z F z2 | F z z F z2 | F z z F z2 | F z z F z2 | F z z4 | x6 | F z z4 | x6 | %86
 F z z4 | x6 | F z z4 | x6 | F z z4 | x6 | x6 | x6 | x6 | x6 | x6 | x6 | x6 | x6 | x6 | x6 | x6 | %103
 x6 | F z z4 | F z z4 | F z z F z2 | F z z4 | F z z4 | F z z4 | F z z F z2 | F z z4 | F z z4 | %113
 F z z F z2 | F z z4 | F z z4 | F z z4 | F z z F z2 | F z z F z2 | F z z4 | F z z4 | F z z4 | %122
 F z z F z2 | F z z4 | F z z4 | F z z4 | F z z4 | F z z4 | F z z4 | F z z4 | F z z F z2 | %131
 F z z F z2 | F z z F z2 | F z z F z2 | F z z F z2 | F z z F z2 | F z z F z2 | F z z F z2 | %138
 F z z F z2 | F z z F z2 | F z2 F z2 | F z2 F z2 | F z2 F z2 | F z z4 | F z z4 | F z z4 | F z z4 | %147
 F z z4 | F z z4 | F z z4 | F z z F z2 | F z z F z2 | F z z F z2 | F z z F z2 | F z z F z2 | %155
 F z z F z2 | F z z F z2 | F z z F z2 | F z z F z2 | F z z F z2 | F z2 F z2 | F z z F z2 | %162
 F z z F z2 | F z z F z2 | F z z F z z | F z z F z2 | !>!F z z4 | x6 | x6 | F z z F z2 | %170
 F z z F z2 | F z z F z2 | F z z F z2 | F z z F z2 | F z z F z2 | F z z F z2 | !>!F z z4 |] %177

